X: 23259
T: Leaving Inchgarth
R: strathspey
M: 4/4
K: Amajor
E2|A2 A>B A>E C<E|A,>C E<A E<B B>c|d>c d<f e<A a>A|(3dcB (3cBA (3BAe (3 dcB|
A2 A>B A>E C<E|A,>C E<A E<B B>c|d>f a>f e>c A<a|d/c/B/A/ G>e c<A A>g||
a2 a>e c>B A<a|B<b b>a g<e e>g|a>g f<d e>c A<a|B<b g>e a2 a>e|
a2 a>e c>B A<a|B<b b>a g<e e>=g|(3fdf (3a=gf (3ece (3aec|d/c/B/A/ G>e c<A A<E||

